X:1
T:Title
%%score { ( 1 4 ) | ( 2 3 ) }
L:1/8
M:6/8
K:G
V:1 treble nm="Grand Piano"
V:4 treble 
V:2 bass 
V:3 bass 
V:1
 z3 z2[Q:1/4=93] D | G2 F G2 [FA] | B2 G E2 [DF] | [DG]2 [DA] [DB]2 [Ec] | B3 A2 D | %5
 G2 F G2 [DFA] | [DGB]2 [B,DG] [G,CE]2 [A,DF] | .[G,DG]2 [Dd] EG[Ec] | [CA]3 [B,G]2 d | d2 B B>cd | %10
 e2 e d2 B | B2 G G>FG |[M:7/8] B3 z z z2 |[M:3/4] d2 BB- B/c/d |[M:7/8] e2 e [G^d]3 [Gd] | %15
[M:3/4] [Dd]2 [G,DG][CE] [EG][Ec] | [CA]3 [B,G]3 |[M:1/8] d |[M:3/4] .[Dd]2 [G,^DG] [G,E]2 [G,DG] | %19
 [DB]2 [^DG] E2 D | z G [DB]E z [^CG] | B3 A2 [Dd] | .[Dd]2 [G,^DG] [G,E]2 [G,DG] | %23
 [DB]2 [^DG] E2 D | z G .[DB]2 G[Ec] | [CA]3 [B,G]3 |] %26
V:2
 z3 z2 D, | [G,B,D]2 [D,A,D] [G,B,D]2 [D,D] | [G,DG]2 [G,B,D][K:bass] [C,G,C]2 [C,A,] | %3
 [B,,G,]2 [A,,F,] [G,,G,]2 [C,G,] | [D,D]6 | [G,B,D]2 [D,A,D] [G,B,D]2 D, | G,2 G, C,2 C, | %7
 z[K:treble] B[K:bass][B,,G,] [C,G,C]2 [A,,A,] | [D,F,]3 [G,,G,]2[K:treble] [G,B,G] | %9
 [B,DG]2 [G,DG] [DG]->[A,DG][B,DG] | [CG]2 [CG] [B,DG]2 [G,DG] | %11
 [G,DG]2[K:bass] [G,B,D] [E,A,^C]2 [E,A,C] |[M:7/8] D2 z [F,D]3 [D,B,] | %13
[M:3/4][K:treble] [G,B,G]2 [G,DG][DG]- [DG]/-[A,DG]/[B,DG] | %14
[M:7/8] [CG]2 [CG][K:bass] [C,C]3 [C,C] |[M:3/4] z z/[K:treble] B/[K:bass] B,, [C,G,]2 [A,,A,] | %16
 [D,F,]3 [G,,G,]3 |[M:1/8] [D,D] |[M:3/4] z[K:treble] B[K:bass] B,, B,,2 C, | %19
 [B,,G,]2 [B,,G,] [C,G,]2 [C,G,C] | [B,,G,]2 .[G,,G,]2 F[A,,E,] | [D,F,C]4- [D,F,C][C,F,] | %22
 z[K:treble] B[K:bass] B,, C,2 C, | [B,,G,]2 [B,,G,] [C,G,]2 [C,G,C] | %24
 [B,,G,]2 [G,,G,] [C,G,]2 [A,,A,] | [D,F,]3 [G,,G,]3 |] %26
V:3
 x6 | x6 | x3[K:bass] x3 | x6 | G,3 F,2 [D,C] | x6 | x6 | .B,,3[K:treble][K:bass] z3 | %8
 x5[K:treble] x | z3 .G,3 | x6 | x2[K:bass] x4 |[M:7/8] [D,-G,]3 D,3 z | %13
[M:3/4][K:treble] z2 z .G,3 |[M:7/8] x3[K:bass] x4 |[M:3/4] [B,,G,]2[K:treble][K:bass] z2 z2 | x6 | %17
[M:1/8] x |[M:3/4] [B,,G,]2[K:treble][K:bass] z2 z2 | x6 | z2 z .A,,3 | x6 | %22
 [B,,G,]2[K:treble][K:bass] z2 z2 | x6 | x6 | x6 |] %26
V:4
 x6 | x6 | x6 | x6 | x6 | x6 | x6 | x6 | x6 | x6 | x6 | x6 |[M:7/8] z2 ^C A3 [Fd] |[M:3/4] x6 | %14
[M:7/8] x7 |[M:3/4] x6 | x6 |[M:1/8] x |[M:3/4] x6 | x6 | D2 z .[G,^C]3 | x6 | x6 | x6 | D2 z .E3 | %25
 x6 |] %26

